X: 182
T: Miss Murray Strathspey
R: strathspey
M: C|
L: 1/16
Z: 2012 John Chambers <jc:trillian.mit.edu>
B: J. Anderson "Budget of Strathspeys, Reels and Country Dances" (Early 1800s) p.18 #2
F: http://imslp.org/wiki/Anderson%27s_Budget_of_Strathspeys,_Reels_and_Country_Dances_(Various)
K: G
c2 | (Bcd2) (g3d) e3dg3d | (Bcd2) (g3d) e3de3g | (Bcd2) (g2d2) efga b3a | g3ed3B (B2G2)G2 :|
(Bc) | d3Ge3G d3Gg3e | d2G2 edcB A4 (A2Bc) | d3Gd3B (g3b)(a3b) | g3ed3B G4 G2 ||
(Bc) | d3G e3G (d2G2)(g2e2) | d3G edcB B2A2 (ABc2) | d3Ge3G (g2b2)(a2b2) | g3ed3B G4G2 |]

%%sep 2 1 500
%%sep 1 1 500

